Gruvbox-Plus-Dark/actions/16/kipiplugin_youtube.svg

<svg xmlns="http://www.w3.org/2000/svg" width="16" height="16" version="1.1">
   <defs>
      <style id="current-color-scheme" type="text/css">
         .ColorScheme-Text {
            color: #ebdbb2;
         }

         .ColorScheme-Highlight {
            color: #458588;
         }
      </style>
   </defs>
   <path style="fill:currentColor" class="ColorScheme-Text"
      d="M 8.1074228,2.0000004 C 6.2376226,2.0004002 3.4791439,2.1237446 2.6523441,2.1523445 1.7535439,2.2383479 1.4219402,2.2863754 0.93164124,2.7343751 0.17682065,3.4449759 0,4.842569 0,6.9804689 v 2.0332038 c 0,2.4373993 0.30353403,3.6769053 0.80859398,4.1289053 0.57707982,0.529 0.95782352,0.569813 1.33984362,0.632813 C 2.2973377,13.798391 3.3557626,14 8.0390634,14 c 2.9195996,0 5.4284996,-0.148641 5.6874986,-0.181641 0.419001,-0.057 1.011704,-0.138781 1.470704,-0.675781 C 15.868266,12.330578 16,10.981091 16,9.0253904 V 6.6582033 C 16,5.3929038 15.935266,3.6073226 15.197266,2.8574223 14.637266,2.3521228 14.433344,2.2110382 13.277345,2.1484377 12.951344,2.1330363 10.100123,1.9996607 8.1074228,2.0000004 Z M 6.0000007,4.0000005 11,8.0000007 6.0000007,12 Z" />
</svg>

<svg width="22" height="22" version="1.1" viewBox="0 0 22 22" xmlns="http://www.w3.org/2000/svg">
  <defs>
    <style type="text/css">.ColorScheme-Text { color:#ebdbb2; } .ColorScheme-Highlight { color:#458588; }</style>
  </defs>
  <path class="ColorScheme-Text" d="m8.107 2c-1.87 3.998e-4 -4.628 0.1237-5.455 0.1523-0.8988 0.086-1.23 0.134-1.721 0.582-0.7548 0.7106-0.9316 2.108-0.9316 4.246v2.033c0 2.437 0.3035 3.677 0.8086 4.129 0.5771 0.529 0.9578 0.5698 1.34 0.6328 0.1489 0.023 1.207 0.2246 5.891 0.2246 2.92 0 5.428-0.1486 5.687-0.1816 0.419-0.057 1.012-0.1388 1.471-0.6758 0.671-0.812 0.8027-2.161 0.8027-4.117v-2.367c0-1.265-0.06473-3.051-0.8027-3.801-0.56-0.5053-0.7639-0.6464-1.92-0.709-0.326-0.0154-3.177-0.1488-5.17-0.1484zm-2.107 3 5 3-5 3z" fill="currentColor"/>
</svg>
